img/hand-grab-top.svg

<svg fill="none" height="253" viewBox="0 0 88 253" width="88" xmlns="http://www.w3.org/2000/svg"><path d="m15.351 121.848-14.441912 130.943 65.810012.001-12.7019-128.212c-1.6608-16.764 4.3183-33.3845 16.2781-45.2489l9.5765-9.5001c3.8533-3.8225 2.6238-10.3286-2.3586-12.4814-6.5518-2.8309-10.7941-9.2852-10.7941-16.4225v-27.2589c0-1.3669-.4749-2.6914-1.3435-3.74695l-.482-.5857c-1.9229-2.33674-5.1521-3.13334-7.9411-1.95901-1.8815.79219-4.0535.39427-5.5319-1.01344l-1.7009-1.6195c-2.4561-2.33873-6.1702-2.75323-9.0815-1.01354-1.728 1.03259-3.8743 1.07041-5.6376.09938l-.8524-.46943c-2.8439-1.56611-6.3421-1.31845-8.937.63276-1.8826 1.41562-4.2806 1.95892-6.5896 1.49295l-.3212-.06484c-3.5884-.72416-7.0981 1.55074-7.9022 5.12212l-6.20562 27.5601c-2.14216 9.5137-1.45548 19.4462 1.97549 28.5746l3.39222 9.0253c5.52991 14.7129 7.51381 30.522 5.79071 46.145z" fill="#ff7f80"/></svg>

<svg width="88" height="253" viewBox="0 0 88 253" fill="none" xmlns="http://www.w3.org/2000/svg">
<path d="M15.351 121.848L0.909088 252.791L66.7191 252.792L54.0172 124.58C52.3564 107.816 58.3355 91.1955 70.2953 79.3311L79.8718 69.831C83.7251 66.0085 82.4956 59.5024 77.5132 57.3496C70.9614 54.5187 66.7191 48.0644 66.7191 40.9271L66.7191 13.6682C66.7191 12.3013 66.2442 10.9768 65.3756 9.92125L64.8936 9.33555C62.9707 6.99881 59.7415 6.20221 56.9525 7.37654C55.071 8.16873 52.899 7.77081 51.4206 6.3631L49.7197 4.7436C47.2636 2.40487 43.5495 1.99037 40.6382 3.73006C38.9102 4.76265 36.7639 4.80047 35.0006 3.82944L34.1482 3.36001C31.3043 1.7939 27.8061 2.04156 25.2112 3.99277C23.3286 5.40839 20.9306 5.95169 18.6216 5.48572L18.3004 5.42088C14.712 4.69672 11.2023 6.97162 10.3982 10.543L4.19258 38.1031C2.05042 47.6168 2.7371 57.5493 6.16807 66.6777L9.56029 75.703C15.0902 90.4159 17.0741 106.225 15.351 121.848Z" fill="#FF7F80"/>
</svg>
